**kern
*staff1
*head1[head1a]
*solo1[solo1a]
*solo2[solo2a]
*solo3[solo3a]
=1-
*clefG2
*k[]
*F:
*M4/4
1r
=2
1r
=3
1r
=4
1r
=5
1r
=6
1r
=7
1r
=8
2r
4r
8r
*>head1a
{8c/
=9
8f/L
8f/
8g/
8c/J
4f/
8r
8c/
=10||
8f/L
8f/
8g/
8c/J
4f/
8r
8c/
=11
8f/L
8f/
8g/
8c/J
8f/L
8f/
8g/
8c/J
=12
8f/L
8f/
8g/
8c/J
4f/
8r
8c/
=13
8f/L
8f/
8g/
8c/J
8f/L
[8B-/J
4B-/]
=14
8f/L
8f/
8g/
8c/J
8f/L
[8B/J
4B/]
=15
8f/L
8f/
8g/
8c/J
8f/L
8f/
8g/
8c/J
=16
8f/L
8f/
8g/
8c/J
4f/
8r
[8a-/
=17
24a/LL
24b-
24a-/JJ]
8f/L
8d/
8B/J
4d/
4r
=18
8r
[8g/
4g/]
8f/L
8g/
8f/
8e-/J
=19
8r
8c/
4r
4c/}
4r
=20
1r
=21
4r
8r
*>solo1a
{8f/
8a\L
8cc\
8b-\
16cc\L
16b-\JJ
=22||
8a/L
8f/
8d/
8c/J
4f/
8d/L
8c/J
=23
8f/L
8a/J
2e-/}
4r
=24
1r
=25
2r
{8ff\L
16dd\L
16cc\J
8a-\
[8f\J
=26
4.f/]
16d/LL
16f/JJ
8g/L
8a-/J}
4r
=27
4r
8r
{8f/
8ff\L
16dd\L
16cc\J
8a-\
[8f\J
=28
4f/_
16f/LL]
16e/JJ
24f/LL
24a/
24cc/JJ
8ee\L
8dd\J}
4r
=29
2r
4r
8r
{16a/LL
16b-/JJ
=30
16dd-\LL1C:dom
16ee-\J
[8cc\
8cc\]
16b-\L
16cc\JJ
4.a/
8f/
=31
24g/LL
24a-/
24g/JJ
8f/L
8d/
[8f/J
4f/]}
4r
=32
2r
4r
8r
*>solo2a
{16c/LL
16f/JJ
=33
8a\L
8cc\
8b-\
16cc\L
16b-\JJ
8a/L
8f/
8e-/
8g/J
=34||
8f/L
8d/J
16B-/LL
16G/J
[8A-/J
4A-/]}
8r
{24e/LL
24d/
24c/JJ
=35
8A/L
8B-/
8c/
8B-/J
20A/LL
20B-/
20c/
20e-/
20g/JJ
8dd\L
[8cc\J
=36
4cc\]}
4r
2r
=37
4r
{16f/LL
16g/
16cc/
[16aa-/JJ
8aa-\L]
[8dd\J
4dd\]}
=38
4r
8r
{16gg\LL
16gg-\JJ
16ff\LL
16ee\
16dd\
16dd-\JJ
16cc/LL
16a/JJ
24b-\LL
24cc\
24b-\JJ
=39
16a/LL
16f/
16d/
16c/JJ
16g/LL
16e/JJ
24f/LL
24a/
24cc/JJ
24ee\LL
24ff\
24ff#\JJ
16gg\LL
16ee\JJ
16ffn\LL
16cc\JJ}
8r
=40
4r
8r
{16a/LL
16g/JJ
16g-/LL
16e-/
16c/
16c#/J
8.d/
16A/Jk
=41
16c/LL
16B-/
16A/
16B-/JJ
16d/LL
16f/
16g/
16a/JJ
16cc/LL
16a/
16b-/
16g/JJ}
4r
=42
4r
8r
*>solo3a
{8f/
8e/
4cc\
8a/
=43
4f/}
4r
4r
{[4c/
=44
2.c/_
8c/L]
8c/J
=45
8d/L
[8c/J
4c/]}
4r
8r
{8f/
=46||
24a-/LL
24b-/
24a-/JJ
8f/L
8d/
[8B-/J
8B-/L]
[8g/J
24g/LL]
24a-/
24g/JJ
8f/
=47
8a/L
8cc/J}
4r
2r
=48
4r
{16b-/LL
16b-/
16a/
16g/JJ
16f/LL
16e/
16e-/
16g/JJ
16d/LL
16c/
16f/
16e-/JJ
=49
16d/LL
16F/
16G/
16A/JJ
16c/LL
16B-/
16A/
16B-/JJ
16d/LL
16f/
16g/
16a/JJ
16cc\LL
16b\
16b-\
[16a-\JJ
=50
8a-/L]
8f/J}
4r
2r
=51
4r
16r
{16g#/
24a\LL
24cc\
24ee\JJ
16gg\LL
16ff\
16ee\
16dd\JJ
16cc/LL
16b-/
16a/
16g#/JJ
=52
16f/LL
16e/
16d/
16d-/JJ
16c/LL
16B-/JJ
24A/LL
24c/
24e/JJ
16g/LL
16cc/
16g/
16f/JJ
16g-/LK
8.b/J
=53
4b-\}
4r
8r
{8a/
24g/LL
24a/
24g/JJ
8f/
=54
8e/L
8G/J
16B-/LL
16d-/J
[8c/J
4c/]
8r
8B-/
=55
8A/L
[8c/J
4c/]
8f/L
8c/
8g/
[8a/J
=56
24a/LL]
24b-/
24a/JJ
8f/L
8d/
[8d-/J
4d-/]
8r
16cc\LL
16b-\JJ
=57
8a/L
8c/J}
4r
2r
==
*-
